X:93
T: Xiu xiangdai
N: C0116
O: China, Hubei, Hefeng
S: I, 456]
N: ]
R: Xiaodiao. Fun? shenghuo]
M: 2/4
L: 1/16
K: F
dfd4Ac | d2fdc2A2 | d3fdcAG | c2GAc4 |
d3fdcGA | c2GAc4 |
A2A2 | c2GA | G2A2 | A2GA | G2A2 | c2G2 | A2GA | A2G2 | F2A2 | G6
EF | D2D4F2 | G3AG2F2 | F2FDG2GF | D8

